common.blocks/icon/icon_type_wallet.svg

<?xml version="1.0" encoding="UTF-8" standalone="no"?>
<svg width="31px" height="26px" viewBox="0 0 31 26" version="1.1" xmlns="http://www.w3.org/2000/svg" xmlns:xlink="http://www.w3.org/1999/xlink">
    <!-- Generator: sketchtool 40 (33762) - http://www.bohemiancoding.com/sketch -->
    <title>FC3F94AC-C370-4146-A5BF-CADD64865934</title>
    <desc>Created with sketchtool.</desc>
    <defs></defs>
    <g id="Page-1" stroke="none" stroke-width="1" fill="none" fill-rule="evenodd">
        <g id="Landing" transform="translate(-133.000000, -2481.000000)" fill="#37CF4F">
            <g id="Content-" transform="translate(-4.000000, -31.000000)">
                <g id="Quick-deposit-and-withdrawal" transform="translate(137.000000, 2503.000000)">
                    <g id="Text">
                        <g id="icon" transform="translate(0.000000, 9.000000)">
                            <path d="M29.9896552,9.81724138 L29.4965517,9.81724138 L29.4965517,6.1862069 C29.4965517,4.84137931 28.3758621,3.72068966 27.0310345,3.72068966 L2.51034483,3.72068966 C2.10689655,3.72068966 1.70344828,3.22758621 1.70344828,2.73448276 L1.70344828,2.55517241 C1.70344828,2.10689655 2.06206897,1.74827586 2.51034483,1.74827586 L25.3724138,1.74827586 C25.8206897,1.74827586 26.1793103,2.10689655 26.1793103,2.55517241 C26.1793103,3.00344828 26.537931,3.36206897 26.9862069,3.36206897 C27.4344828,3.36206897 27.7931034,3.00344828 27.7931034,2.55517241 C27.7931034,1.21034483 26.6724138,0.0896551724 25.3275862,0.0896551724 L2.46551724,0.0896551724 C1.12068966,0.0896551724 0,1.21034483 0,2.55517241 L0,2.68965517 L0,23.2655172 C0,24.6103448 1.12068966,25.7310345 2.46551724,25.7310345 L26.8965517,25.7310345 C28.2413793,25.7310345 29.362069,24.6103448 29.362069,23.2655172 L29.362069,18.5137931 L29.8551724,18.5137931 C30.3034483,18.5137931 30.662069,18.1551724 30.662069,17.7068966 L30.662069,10.6241379 C30.7965517,10.1758621 30.437931,9.81724138 29.9896552,9.81724138 L29.9896552,9.81724138 Z M21.6965517,16.9 C20.262069,16.9 19.0965517,15.6896552 19.0965517,14.1655172 C19.0965517,12.6862069 20.262069,11.4310345 21.6965517,11.4310345 L29.137931,11.4310345 L29.137931,16.8551724 L21.6965517,16.8551724 L21.6965517,16.9 Z M27.7931034,23.2655172 C27.7931034,23.7137931 27.4344828,24.0724138 26.9862069,24.0724138 L2.55517241,24.0724138 C2.10689655,24.0724138 1.74827586,23.7137931 1.74827586,23.2655172 L1.74827586,5.33448276 L27.0310345,5.33448276 C27.4793103,5.33448276 27.837931,5.69310345 27.837931,6.14137931 L27.837931,9.77241379 L21.6965517,9.77241379 C19.3655172,9.77241379 17.437931,11.7448276 17.437931,14.1206897 C17.437931,16.5413793 19.3206897,18.4689655 21.6965517,18.4689655 L27.7931034,18.4689655 L27.7931034,23.2655172 L27.7931034,23.2655172 Z" id="Shape"></path>
                        </g>
                    </g>
                </g>
            </g>
        </g>
    </g>
</svg>

<svg width="31" height="26" viewBox="0 0 31 26" xmlns="http://www.w3.org/2000/svg"><title>FC3F94AC-C370-4146-A5BF-CADD64865934</title><path d="M29.99 9.817h-.493v-3.63A2.487 2.487 0 0 0 27.03 3.72H2.511c-.404 0-.808-.493-.808-.987v-.179c0-.448.36-.807.807-.807h22.862c.449 0 .807.359.807.807 0 .448.359.807.807.807a.804.804 0 0 0 .807-.807A2.487 2.487 0 0 0 25.328.09H2.466A2.487 2.487 0 0 0 0 2.555V23.266a2.487 2.487 0 0 0 2.466 2.465h24.43a2.487 2.487 0 0 0 2.466-2.465v-4.752h.493a.804.804 0 0 0 .807-.807v-7.083c.135-.448-.224-.807-.672-.807zM21.697 16.9c-1.435 0-2.6-1.21-2.6-2.734 0-1.48 1.165-2.735 2.6-2.735h7.44v5.424h-7.44v.045zm6.096 6.366a.804.804 0 0 1-.807.806H2.556a.804.804 0 0 1-.808-.806V5.334h25.283c.448 0 .807.36.807.807v3.631h-6.141c-2.331 0-4.26 1.973-4.26 4.349 0 2.42 1.884 4.348 4.26 4.348h6.096v4.797z" fill="#37CF4F" fill-rule="evenodd"/></svg>
